icons/database-2-fill.svg

<svg viewBox="0 0 24 24" fill="currentColor" xmlns="http://www.w3.org/2000/svg">
    <path d="M21 9.5V12.5C21 14.9853 16.9706 17 12 17C7.02944 17 3 14.9853 3 12.5V9.5C3 11.9853 7.02944 14 12 14C16.9706 14 21 11.9853 21 9.5ZM3 14.5C3 16.9853 7.02944 19 12 19C16.9706 19 21 16.9853 21 14.5V17.5C21 19.9853 16.9706 22 12 22C7.02944 22 3 19.9853 3 17.5V14.5ZM12 12C7.02944 12 3 9.98528 3 7.5C3 5.01472 7.02944 3 12 3C16.9706 3 21 5.01472 21 7.5C21 9.98528 16.9706 12 12 12Z"/>
</svg>

<svg xmlns="http://www.w3.org/2000/svg" viewBox="0 0 24 24">
    <g>
        <path fill="none" d="M0 0h24v24H0z"/>
        <path d="M21 9.5v3c0 2.485-4.03 4.5-9 4.5s-9-2.015-9-4.5v-3c0 2.485 4.03 4.5 9 4.5s9-2.015 9-4.5zm-18 5c0 2.485 4.03 4.5 9 4.5s9-2.015 9-4.5v3c0 2.485-4.03 4.5-9 4.5s-9-2.015-9-4.5v-3zm9-2.5c-4.97 0-9-2.015-9-4.5S7.03 3 12 3s9 2.015 9 4.5-4.03 4.5-9 4.5z"/>
    </g>
</svg>
